coreui/free/cil-satelite.svg

<svg xmlns="http://www.w3.org/2000/svg" viewBox="0 0 512 512">
  <path fill="var(--ci-primary-color, currentColor)" d="M16,496H496V16H16Zm448-32H438.627l-104-104,54.912-54.911L464,379.55ZM48,48H464V334.3l-74.461-74.461L312,337.373l-112-112-152,152Zm0,374.627,152-152L393.373,464H48Z" class="ci-primary"/>
  <path fill="var(--ci-primary-color, currentColor)" d="M120,80H80v40A40,40,0,0,0,120,80Z" class="ci-primary"/>
  <path fill="var(--ci-primary-color, currentColor)" d="M80,163.661V196.6A152.468,152.468,0,0,0,196.6,80H163.661A120.471,120.471,0,0,1,80,163.661Z" class="ci-primary"/>
</svg>

<svg viewBox="0 0 512 512" xmlns="http://www.w3.org/2000/svg"><g><path d="M16 496h480V16H16Zm448-32h-25.38l-104-104 54.91-54.911 74.46 74.46ZM48 48h416v286.3l-74.47-74.47 -77.54 77.53 -112-112 -152 152Zm0 374.627l152-152L393.373 464H48Z"/><path d="M120 80H80v40 0c22.09 0 40-17.91 40-40Z"/><path d="M80 163.661v32.93 0c58.34-12.69 103.91-58.26 116.6-116.6h-32.94v0c-11.33 40.6-43.06 72.33-83.661 83.66Z"/></g></svg>
